remix/Map/truck-line.svg

<svg viewBox="0 0 24 24" fill="currentColor" xmlns="http://www.w3.org/2000/svg"><path d="M8.96456 18C8.72194 19.6961 7.26324 21 5.5 21C3.73676 21 2.27806 19.6961 2.03544 18H1V6C1 5.44772 1.44772 5 2 5H16C16.5523 5 17 5.44772 17 6V8H20L23 12.0557V18H20.9646C20.7219 19.6961 19.2632 21 17.5 21C15.7368 21 14.2781 19.6961 14.0354 18H8.96456ZM15 7H3V15.0505C3.63526 14.4022 4.52066 14 5.5 14C6.8962 14 8.10145 14.8175 8.66318 16H14.3368C14.5045 15.647 14.7296 15.3264 15 15.0505V7ZM17 13H21V12.715L18.9917 10H17V13ZM17.5 19C18.1531 19 18.7087 18.5826 18.9146 18C18.9699 17.8436 19 17.6753 19 17.5C19 16.6716 18.3284 16 17.5 16C16.6716 16 16 16.6716 16 17.5C16 17.6753 16.0301 17.8436 16.0854 18C16.2913 18.5826 16.8469 19 17.5 19ZM7 17.5C7 16.6716 6.32843 16 5.5 16C4.67157 16 4 16.6716 4 17.5C4 17.6753 4.03008 17.8436 4.08535 18C4.29127 18.5826 4.84689 19 5.5 19C6.15311 19 6.70873 18.5826 6.91465 18C6.96992 17.8436 7 17.6753 7 17.5Z"/></svg>

<svg viewBox="0 0 24 24" xmlns="http://www.w3.org/2000/svg"><path fill="none" d="M0 0h24v24H0Z"/><path d="M8.96 18v0c-.28 1.91-2.05 3.24-3.96 2.97 -1.55-.22-2.76-1.44-2.98-2.98H.98v-12 0c0-.56.44-1 1-1h14v0c.55 0 1 .44 1 1v2h3l3 4.05v5.94h-2.035v0c-.28 1.91-2.05 3.24-3.96 2.97 -1.55-.22-2.76-1.44-2.98-2.98H8.93Zm6.03-11h-12v8.05h0c1.35-1.39 3.56-1.41 4.94-.06 .29.28.53.62.71 1h5.67c.16-.36.39-.68.66-.95V6.99Zm2 6h4v-.29L18.98 9.99h-2v3Zm.5 6v0c.82 0 1.5-.68 1.5-1.51s-.68-1.51-1.51-1.51v0c-.83 0-1.51.67-1.51 1.5 0 .82.67 1.5 1.5 1.5Zm-10.5-1.5v0c0-.83-.68-1.5-1.5-1.5 -.83 0-1.5.67-1.5 1.5v0c0 .82.67 1.5 1.5 1.5 .82 0 1.5-.68 1.5-1.5Z"/></svg>
